src/4-icons/switch.svg

<svg width="260" height="260" viewBox="0 0 260 260" fill="none" xmlns="http://www.w3.org/2000/svg">
<g opacity="0.9">
<path fill-rule="evenodd" clip-rule="evenodd" d="M0 130C0 96.8629 26.8629 70 60 70H200C233.137 70 260 96.8629 260 130C260 163.137 233.137 190 200 190H60C26.8629 190 0 163.137 0 130ZM98.5249 176H200C225.405 176 246 155.405 246 130C246 104.595 225.405 84 200 84H98.5249C111.653 95.0063 120 111.528 120 130C120 148.472 111.653 164.994 98.5249 176ZM14 130C14 104.595 34.5949 84 60 84C85.4051 84 106 104.595 106 130C106 155.405 85.4051 176 60 176C34.5949 176 14 155.405 14 130Z" fill="black"/>
</g>
</svg>

<svg width="260" height="260" viewBox="0 0 260 260" fill="none" xmlns="http://www.w3.org/2000/svg"><path fill-rule="evenodd" clip-rule="evenodd" d="M0 130c0-33.137 26.863-60 60-60h140c33.137 0 60 26.863 60 60s-26.863 60-60 60H60c-33.137 0-60-26.863-60-60Zm98.525 46H200c25.405 0 46-20.595 46-46s-20.595-46-46-46H98.525C111.653 95.006 120 111.528 120 130s-8.347 34.994-21.475 46ZM14 130c0-25.405 20.595-46 46-46s46 20.595 46 46-20.595 46-46 46-46-20.595-46-46Z" fill="#000" opacity=".9"/></svg>
